icons/editor/folder-shared.svg

<svg width="32" height="32" viewBox="0 0 32 32" fill="none" xmlns="http://www.w3.org/2000/svg">
<path fill-rule="evenodd" clip-rule="evenodd" d="M2 6.00017C1.99999 4.89559 2.89542 4.00015 4 4.00015H10.586C11.1165 4.00015 11.6252 4.21087 12.0002 4.58594L15.4145 8.00018H28.0001C29.1047 8.00018 30.0001 8.89561 30.0001 10.0002V26C30.0001 27.1046 29.1047 28 28.0001 28H4.00014C2.89557 28 2.00015 27.1046 2.00014 26L2 6.00017ZM4 6.00015L4.00014 26H14C14 23.7909 15.7909 22 18 22H22C24.2091 22 26 23.7909 26 26L28.0001 26V10.0002H15.4145C14.884 10.0002 14.3753 9.78947 14.0002 9.41439L10.586 6.00015H4ZM22 24C23.1046 24 24 24.8955 24 26H16C16 24.8955 16.8954 24 18 24H22ZM22 17C22 18.1046 21.1046 19 20 19C18.8954 19 18 18.1046 18 17C18 15.8955 18.8954 15 20 15C21.1046 15 22 15.8955 22 17ZM24 17C24 19.2092 22.2091 21 20 21C17.7909 21 16 19.2092 16 17C16 14.7909 17.7909 13 20 13C22.2091 13 24 14.7909 24 17Z" fill="black"/>
</svg>

<svg viewBox="0 0 32 32" xmlns="http://www.w3.org/2000/svg"><path fill-rule="evenodd" d="M2 6a2 2 0 012-2h6.586A2 2 0 0112 4.586L15.415 8H28a2 2 0 012 2v16a2 2 0 01-2 2H4a2 2 0 01-2-2V6zm2 0v20h10a4 4 0 014-4h4a4 4 0 014 4h2V10H15.415A2 2 0 0114 9.414L10.586 6H4zm18 18a2 2 0 012 2h-8a2 2 0 012-2h4zm0-7a2 2 0 11-4 0 2 2 0 014 0zm2 0a4 4 0 11-8 0 4 4 0 018 0z"/></svg>
